status/48/audio-volume-muted-blocking-headphones-symbolic.svg

<?xml version="1.0" encoding="UTF-8" standalone="no"?>
<svg
   xmlns:dc="http://purl.org/dc/elements/1.1/"
   xmlns:cc="http://creativecommons.org/ns#"
   xmlns:rdf="http://www.w3.org/1999/02/22-rdf-syntax-ns#"
   xmlns:svg="http://www.w3.org/2000/svg"
   xmlns="http://www.w3.org/2000/svg"
   xmlns:sodipodi="http://sodipodi.sourceforge.net/DTD/sodipodi-0.dtd"
   xmlns:inkscape="http://www.inkscape.org/namespaces/inkscape"
   inkscape:version="1.0 (4035a4fb49, 2020-05-01)"
   sodipodi:docname="audio-volume-muted-blocking-headphones-symbolic.svg"
   id="svg6"
   version="1.1"
   width="48"
   height="48">
  <sodipodi:namedview
     inkscape:current-layer="svg6"
     inkscape:cy="24"
     inkscape:cx="24"
     inkscape:zoom="11.4375"
     showgrid="false"
     id="namedview6"
     inkscape:window-height="480"
     inkscape:window-width="640"
     inkscape:pageshadow="2"
     inkscape:pageopacity="0"
     guidetolerance="10"
     gridtolerance="10"
     objecttolerance="10"
     borderopacity="1"
     bordercolor="#666666"
     pagecolor="#ffffff" />
  <metadata
     id="metadata12">
    <rdf:RDF>
      <cc:Work
         rdf:about="">
        <dc:format>image/svg+xml</dc:format>
        <dc:type
           rdf:resource="http://purl.org/dc/dcmitype/StillImage" />
        <dc:title />
      </cc:Work>
    </rdf:RDF>
  </metadata>
  <defs
     id="defs10" />
  <path
     id="path861-3"
     class="warning"
     d="m 24,7.9999661 c -3.968037,0 -7.567351,1.6524416 -10.248047,4.3378909 l -0.712891,-0.712891 c -0.195868,-0.195869 -0.511162,-0.195869 -0.707031,0 L 11.625,12.331997 c -0.195869,0.195869 -0.195869,0.511163 0,0.707031 l 23.335938,23.335938 c 0.195867,0.195869 0.511162,0.195869 0.707031,0 l 0.666015,-0.666016 1.242188,0.164063 1.216797,-9.347656 C 38.92449,25.690726 38.9937,24.846279 39,23.999966 39,15.16341 32.284271,7.9999661 24,7.9999661 Z m 0,2.9999999 c 7.179702,0 13.000001,6.044156 13,13.5 -6.8e-5,0.698773 -0.05807,1.395768 -0.162109,2.085938 l -1.029297,7.808593 -1.832032,-1.832031 0.886719,-6.740234 c 0.109501,-0.831738 -0.47295,-1.589719 -1.304687,-1.699219 l -1.955078,-0.255859 c -0.103968,-0.01369 -0.206108,-0.01681 -0.306641,-0.0098 -0.703734,0.04931 -1.294812,0.58473 -1.390625,1.3125 L 29.519531,28.105435 15.617188,14.203091 C 17.880404,12.211134 20.800625,10.999966 24,10.999966 Z M 11.591797,15.013638 C 9.9578549,17.575609 9,20.667758 9,23.999966 c 0.00628,0.846313 0.075512,1.69076 0.2070312,2.525391 l 1.2167968,9.347656 1.927734,-0.253906 -1.189453,-9.033203 C 11.058071,25.895736 11.000068,25.198739 11,24.499966 c 0,-2.871884 0.869642,-5.530507 2.341797,-7.71875 L 11.625,15.064419 c -0.01494,-0.01494 -0.02054,-0.03455 -0.0332,-0.05078 z m 5.111328,8.84375 c -0.100533,-0.007 -0.202673,-0.0039 -0.306641,0.0098 l -1.955078,0.255859 c -0.831737,0.1095 -1.414188,0.867481 -1.304687,1.699219 l 1.693359,12.861328 c 0.1095,0.831737 0.867481,1.412234 1.699219,1.302734 l 1.955078,-0.257812 c 0.831737,-0.109501 1.412235,-0.865529 1.302734,-1.697266 L 18.09375,25.169888 c -0.09581,-0.72777 -0.686891,-1.263194 -1.390625,-1.3125 z m 12.251953,8.537109 -0.742187,5.636719 c -0.109501,0.831737 0.470997,1.587765 1.302734,1.697266 l 1.955078,0.257812 c 0.831738,0.1095 1.589719,-0.470997 1.699219,-1.302734 l 0.242187,-1.832032 z"
     style="opacity:1;vector-effect:none;fill:#fbc02d;fill-opacity:1;stroke:none;stroke-width:1;stroke-linecap:butt;stroke-linejoin:miter;stroke-miterlimit:4;stroke-dasharray:none;stroke-dashoffset:0;stroke-opacity:1;marker:none;paint-order:normal;font-variation-settings:normal;stop-color:#000000;stop-opacity:1" />
</svg>

<?xml version="1.0" encoding="UTF-8" standalone="no"?>
<svg
   height="48"
   width="48"
   version="1.1"
   id="svg6"
   xmlns="http://www.w3.org/2000/svg"
   xmlns:svg="http://www.w3.org/2000/svg"
   xmlns:rdf="http://www.w3.org/1999/02/22-rdf-syntax-ns#"
   xmlns:cc="http://creativecommons.org/ns#"
   xmlns:dc="http://purl.org/dc/elements/1.1/">
  <metadata
     id="metadata12">
    <rdf:RDF>
      <cc:Work
         rdf:about="">
        <dc:format>image/svg+xml</dc:format>
        <dc:type
           rdf:resource="http://purl.org/dc/dcmitype/StillImage" />
      </cc:Work>
    </rdf:RDF>
  </metadata>
  <defs
     id="defs10" />
  <path
     id="path861"
     class="warning"
     style="opacity:0.8;fill:#f9c440;fill-opacity:1;stroke:none;stroke-width:1.00000012;stroke-linecap:butt;stroke-linejoin:miter;stroke-miterlimit:4;stroke-dasharray:none;stroke-dashoffset:0;stroke-opacity:1;marker:none;paint-order:normal"
     d="M 24 8 C 19.536407 8 15.530949 10.082379 12.783203 13.382812 L 14.589844 15.189453 C 16.957571 12.609729 20.297252 11 24 11 C 31.179695 11 37.000001 17.044163 37 24.5 C 36.999932 25.198772 36.941929 25.89577 36.837891 26.585938 L 35.648438 35.619141 L 37.576172 35.873047 L 38.792969 26.525391 C 38.92449 25.69076 38.9937 24.846312 39 24 C 39 15.163453 32.284263 8 24 8 z M 11.587891 15.015625 C 9.9552313 17.576952 9 20.669222 9 24 C 9.00628 24.846312 9.0755123 25.69076 9.2070312 26.525391 L 10.423828 35.873047 L 12.351562 35.619141 L 11.162109 26.585938 C 11.058071 25.89577 11.000068 25.198772 11 24.5 C 11 21.624885 11.868567 18.96112 13.34375 16.771484 L 11.587891 15.015625 z M 16.703125 23.857422 C 16.602592 23.850378 16.500452 23.8535 16.396484 23.867188 L 14.441406 24.123047 C 13.60967 24.232547 13.027218 24.990528 13.136719 25.822266 L 14.830078 38.683594 C 14.939578 39.51533 15.69756 40.095828 16.529297 39.986328 L 18.484375 39.728516 C 19.316111 39.619015 19.89661 38.862986 19.787109 38.03125 L 18.09375 25.169922 C 17.997937 24.442153 17.406858 23.906728 16.703125 23.857422 z M 31.296875 23.857422 C 30.593142 23.906728 30.002063 24.442153 29.90625 25.169922 L 29.285156 29.884766 L 33.742188 34.341797 L 34.863281 25.822266 C 34.972782 24.990528 34.39033 24.232547 33.558594 24.123047 L 31.603516 23.867188 C 31.499548 23.8535 31.397408 23.850378 31.296875 23.857422 z M 28.957031 32.384766 L 28.212891 38.03125 C 28.10339 38.862986 28.683889 39.619015 29.515625 39.728516 L 31.470703 39.986328 C 32.30244 40.095828 33.060422 39.51533 33.169922 38.683594 L 33.412109 36.839844 L 28.957031 32.384766 z " />
  <path
     id="path2"
     d="m 13.039062,11.625 c -0.195868,-0.195869 -0.511162,-0.195869 -0.707031,0 L 11.625,12.332031 c -0.195869,0.195869 -0.195869,0.511163 0,0.707031 L 34.960938,36.375 c 0.195868,0.195869 0.511162,0.195869 0.707031,0 L 36.375,35.667969 c 0.195869,-0.195869 0.195869,-0.511163 0,-0.707031 z"
     style="font-variation-settings:normal;vector-effect:none;fill:#555761;fill-opacity:1;stroke:none;stroke-width:0.992;stroke-linecap:square;stroke-linejoin:miter;stroke-miterlimit:4;stroke-dasharray:none;stroke-dashoffset:0;stroke-opacity:1;-inkscape-stroke:none;marker:none;stop-color:#000000" />
</svg>
